public/assets/icon_leadership.svg

<svg fill="none" height="11" viewBox="0 0 14 11" width="14" xmlns="http://www.w3.org/2000/svg"><path d="m4.7 6.85162c-1.57114 0-4.7.78558-4.7 2.35v1.17498h9.4v-1.17498c0-1.56442-3.12886-2.35-4.7-2.35zm-3.12886 2.18215c.564-.38943 1.927-.83929 3.12886-.83929s2.56486.44986 3.12886.83929zm3.12886-3.35715c1.29586 0 2.35-1.05414 2.35-2.35 0-1.29585-1.05414-2.349996-2.35-2.349996s-2.35 1.054146-2.35 2.349996c0 1.29586 1.05414 2.35 2.35 2.35zm0-3.35714c.55729 0 1.00714.44986 1.00714 1.00714 0 .55729-.44985 1.00715-1.00714 1.00715s-1.00714-.44986-1.00714-1.00715c0-.55728.44985-1.00714 1.00714-1.00714zm4.72686 4.57243c.77884.564 1.31604 1.316 1.31604 2.30971v1.17498h2.6857v-1.17498c0-1.35628-2.35-2.12842-4.00174-2.30971zm-.69829-1.21529c1.29583 0 2.35003-1.05414 2.35003-2.35 0-1.29585-1.0542-2.349996-2.35003-2.349996-.36257 0-.69828.087286-1.00714.234996.423.59757.67143 1.32943.67143 2.115 0 .78558-.24843 1.51743-.67143 2.115.30886.14772.64457.235 1.00714.235z" fill="#fff"/></svg>

<svg width="14" height="11" viewBox="0 0 14 11" fill="none" xmlns="http://www.w3.org/2000/svg">
<path d="M4.7 6.85162C3.12886 6.85162 0 7.6372 0 9.20162V10.3766H9.4V9.20162C9.4 7.6372 6.27114 6.85162 4.7 6.85162ZM1.57114 9.03377C2.13514 8.64434 3.49814 8.19448 4.7 8.19448C5.90186 8.19448 7.26486 8.64434 7.82886 9.03377H1.57114ZM4.7 5.67662C5.99586 5.67662 7.05 4.62248 7.05 3.32662C7.05 2.03077 5.99586 0.976624 4.7 0.976624C3.40414 0.976624 2.35 2.03077 2.35 3.32662C2.35 4.62248 3.40414 5.67662 4.7 5.67662ZM4.7 2.31948C5.25729 2.31948 5.70714 2.76934 5.70714 3.32662C5.70714 3.88391 5.25729 4.33377 4.7 4.33377C4.14271 4.33377 3.69286 3.88391 3.69286 3.32662C3.69286 2.76934 4.14271 2.31948 4.7 2.31948ZM9.42686 6.89191C10.2057 7.45591 10.7429 8.20791 10.7429 9.20162V10.3766H13.4286V9.20162C13.4286 7.84534 11.0786 7.0732 9.42686 6.89191ZM8.72857 5.67662C10.0244 5.67662 11.0786 4.62248 11.0786 3.32662C11.0786 2.03077 10.0244 0.976624 8.72857 0.976624C8.366 0.976624 8.03029 1.06391 7.72143 1.21162C8.14443 1.80919 8.39286 2.54105 8.39286 3.32662C8.39286 4.1122 8.14443 4.84405 7.72143 5.44162C8.03029 5.58934 8.366 5.67662 8.72857 5.67662Z" fill="white"/>
</svg>
